!!!COM: Bach, Johann Sebastian
!!!OPR: Joh. Seb. Bachs vierstimmige Choralges‰nge
!!!XEN: Four-part Chorales
!!!OTL: 82. Herr Jesu Christ, mein's Lebens Licht
!!!SCT: BWV 335
!!!SCA: Thematisch-systematisches Verzeichnis der musikalischen Werke Johann Sebastian Bach: Bach-Werke-Verzeichnis (Schmieder)
!!!YOR: Bach Gesellschaft Edition xxxix
!!!ENC: Steven Rasmussen
!!!CDT: 1685/3//-1750/7/28/
!!!OCY: Deutschland
!!!YEC: Copyright (c) 1994, 2000 Center for Computer Assisted Research in the Humanities
!!!YEM: Rights to all derivative editions reserved
!!!YEN: United States of America
**kern	**kern	**kern	**kern	**silbe
*I:[BASSO]	*I:[TENORE]	*I:[ALTO]	*I:[SOPRANO]	*I:[SOPRANO]
*clefF4	*clefGv2	*clefG2	*clefG2	*
*k[f#]	*k[f#]	*k[f#]	*k[f#]	*
*e:	*e:	*e:	*e:	*
*M4/4	*M4/4	*M4/4	*M4/4	*
4B	4F#	4d#	4b	Herr(O?
=1	=1	=1	=1	=1
4E	4G	4e	4b	Je-Je-
4c	8AL	4e	4a	-su-su,
.	8GJ	.	.	.
4D#	4F#	4f#	4b	Christ,du
4E	4B	4e	4g	mein'smein
=2	=2	=2	=2	=2
4AA	4c	4e	8f#L	Le-Br√§u-
.	.	.	16gL	.
.	.	.	16aJJ	.
4BB	8BL	4d#	4f#	-bens-ti-
.	8AJ	.	.	.
4E;	4G;	4B;	4e;	Licht,-gam,
4E	8GL	4B	8eL	meinder
.	8AJ	.	8f#J	.
=3	=3	=3	=3	=3
4E	4B	4e	4g	Hort,du
4F#	4A	4d	4a	meinaus
4G	4G	4d	4b	Trost,Lieb'
8DL	4F#	8dL	4a	mein'am
8C#J	.	8eJ	.	.
=4	=4	=4	=4	=4
4BB	4B	4f#	4dd	Zu-Kreu-
4F#	8BL	8.f#L	4cc#	-ver--zes-
.	8A#J	.	.	.
.	.	16eJk	.	.
4BB;	4F#;	4d;	4b;	-sicht,-stamm
8EL	4G	4e	4b	auff√ºr
8DJ	.	.	.	.
=5	=5	=5	=5	=5
4C#	4A	4e	4ee	Er-mich
4D	8AL	4d	4ff#	-denden
.	8BJ	.	.	.
4A	4c#	4e	4ee	binTod
4G#	4d	4e#	4b	ichge-
=6	=6	=6	=6	=6
8AL	4c#	4f#	4cc#	nur-lit-
8BJ	.	.	.	.
4c#	8G#L	8f#L	4b	ein-ten
.	8c#J	8e#J	.	.
4F#;	4c#;	4f#;	4a;	Gast,hast,
4D	4d	8f#L	8aL	undge-
.	.	8g#J	8bJ	.
=7	=7	=7	=7	=7
4A	4e	4a	4cc#	dr√ºckt-nom-
8G#L	4f#	4a	4dd#	mich-men
8F#J	.	.	.	.
8G#L	8eL	8bL	4ee	sehrweg
8A#J	8c#J	8cc#J	.	.
4B	8dL	8cc#L	4ddn	derder
.	8f#J	8bJ	.	.
=8	=8	=8	=8	=8
4E	8gL	8bL	8cc#L	S√ºn-S√ºn-
.	8c#J	16a#L	16ddL	.
.	.	16g#JJ	16eeJJ	.
4F#	8f#L	4a#	4cc#	-den-den
.	8eJ	.	.	.
4BB;	4d#;	4f#;	4b;	Last.Last.)
==|!	==|!	==|!	==|!	==|!
!!!RNB1: *) Alternative text: "O Jesu, du mein Br√§utigam".
*-	*-	*-	*-	*-
!!!RWG: Key is interpreted using the Humdrum key tool.
!!!END: 1994/06/10
!!!EMD: Converted from MuseData to Humdrum Dec 19, 2000, by Andreas Kornstaedt using muse2kern.
!!!EED: Craig Stuart Sapp
!!!EEV: 2024/03/31
!!!ONB: Some non-unicode characters
!!!filter-keyboard: satb2gs
